X: 182
T: Ga laohan
%%abc-version 2.0
%%abcx-abcm2ps-target-version 5.9.1 (29 Sep 2008)
%%abc-creator hum2abc beta
%%abcx-conversion-date 2013/10/02 07:44:28
%%abc-edited-by Helmut Schaffrath
%%humdrum-veritas 1158816563
%%humdrum-veritas-data 1193630295
%%continueall 1
%%barnumbers 0
L: 1/8
M: 2/4
K: F
d f d c | 
d f d c | 
d4 | 
d2z2 | 
f d d c | 
d2c A | 
G4 | 
G2z2 | 
A/ c/A2c | 
d f d c | 
A2c2 | 
F3G | 
c c c A | 
c2G F | 
D4 | 
D2z2 |]  



